X:3005
T:Polska efter spelman från Skillingmark
B:EÖ, nr 295
R:Polska
O:Skillingmarks sn, Värmland
Z:Nils L
L:1/8
M:3/4
%%tuplets 0 0 1
U:t=tenuto
K:D
AB/c/ d2 ef | !>!gz B4 | g>f e>d cB/c/ | d>B A>G F>G |
AB/c/ d2 e>f | !>!gz B4 | g>f e>d (3PcBc | d2 D3z :|
{/A}d>f A>a A>a | A>a a>g g>b | b>g e>d cB/c/ | d>B A>G FA |
d>f Aa Aa | Aa ag gb | bg ed (3cBc | d2 D3z ||
(:musicend:)
(:music:)
